svgs/trenitalia.svg

<svg width="192" height="192" viewBox="0 0 192 192" fill="none" xmlns="http://www.w3.org/2000/svg">
<path d="M28.3545 134.463C28.3545 134.463 49.0454 138.662 62.9407 113.746C71.1546 99.0178 73.1235 95.4873 73.1235 95.4873L46.6132 97.9452L28.3545 134.463Z" stroke="black" stroke-width="8" stroke-linecap="round" stroke-linejoin="round"/>
<path d="M57.6951 73.0008C59.9619 73.0008 87.5754 72.7947 87.5754 72.7947C87.5754 72.7947 93.8425 63.1497 114.525 52.3491C123.798 47.5064 145.316 44.4877 145.316 44.4877L171.24 44.4462L172 43.0759H111.434C111.434 43.0759 96.5247 42.2934 87.1172 45.7548C64.9336 54.6336 57.6951 73.0008 57.6951 73.0008Z" stroke="black" stroke-width="8" stroke-linecap="round" stroke-linejoin="round"/>
<path d="M118.619 71.9838C118.619 71.9838 124.67 63.7905 138.632 57.9726C147.243 54.2492 167.722 54.9957 167.722 54.9957L158.18 71.751L118.619 71.9838Z" stroke="black" stroke-width="8" stroke-linecap="round" stroke-linejoin="round"/>
<path d="M20 146.096C20.6582 146.096 61.8747 149.247 75.6131 136.388C86.5909 126.112 94.0007 117.461 97.5354 111.339L108.515 90.6935L156.25 85.8697L155.592 87.6798C155.592 87.6798 136.363 88.0508 129.665 92.7245C124.133 96.5856 120.495 105.396 120.379 110.428C119.898 125.212 115.619 130.62 115.619 130.62C106.568 146.746 90.2642 146.425 90.2642 146.425L20 148.071V146.096Z" stroke="black" stroke-width="8" stroke-linecap="round" stroke-linejoin="round"/>
</svg>

<svg width="192" height="192" viewBox="0 0 192 192" fill="none" xmlns="http://www.w3.org/2000/svg"><path d="M28.355 134.463s20.69 4.199 34.586-20.717l10.183-18.259-26.51 2.458-18.26 36.518ZM57.695 73c2.267 0 29.88-.205 29.88-.205s6.267-9.645 26.95-20.446c9.273-4.843 30.791-7.861 30.791-7.861l25.924-.042.76-1.37h-60.566s-14.91-.783-24.317 2.679C64.934 54.634 57.695 73 57.695 73ZM118.619 71.984s6.051-8.193 20.013-14.011c8.611-3.724 29.09-2.977 29.09-2.977L158.18 71.75l-39.561.233Z" stroke="#000" stroke-width="8" stroke-linecap="round" stroke-linejoin="round"/><path d="M20 146.096c.658 0 41.875 3.151 55.613-9.708 10.978-10.276 18.388-18.927 21.922-25.049l10.98-20.645 47.735-4.824-.658 1.81s-19.229.37-25.927 5.044c-5.532 3.862-9.17 12.672-9.286 17.704-.481 14.784-4.76 20.192-4.76 20.192-9.051 16.126-25.355 15.805-25.355 15.805L20 148.071v-1.975Z" stroke="#000" stroke-width="8" stroke-linecap="round" stroke-linejoin="round"/></svg>
